X: 10683
T: 3. THE DUCHESS OF ATHOLE'S STRATHSPEY
R: strathspey
N: #3 of Six Strathspeys and Reels arranged by W.B. Laybourn
B: K\"ohler's Violin Repository, v.1, 1885 p.68 #3
F: http://www.archive.org/details/klersviolinrepos01edin
Z: 2012 John Chambers <jc:trillian.mit.edu>
N: Added missing dot to D in bar 14.  Broke some long beams for readability.
M: C|
L: 1/16
K: D
ud2 !segno!|\
A3d fd3 (e3d) B4 | (.A3.d)(f2d2) (.a3.d)f4 |\
(gb3) (fd'3) (.e3.d) "^w"B4 | (.A3.d) (.f3.d) e4 d4 :|
|: (v.a3.f) (.d'3.f) (gfed) B4 | (.a3.f) (.d'3.f) (afab) d'4 |\
(.b3.a) ('d'3.f) (gfed) B4 | [A3D3]d fd3 e4 d4 :|
|: vD2d2 f2d2 B2e2 c2A2 | D2d2 f2d2 a2d2 f2d2 |\
g2bg f2d'f B2e2 c2A2 | (.D3.d) (f2d2) e4 d4 :|
|: (vdefg a)f3 d'e3 cA3 | (defg a)f3 d'f3 af3 |\
g2bg f2d'f B2e2 c2A2 | (.D3.d) (.f3.d) "_Segue Reel."e4 d4 !segno!:|

%%sep 2 1 500

